X: 26479
T: Michael Coleman's
R: waltz
M: 3/4
K: Gmajor
|:D2 BA B2|D2 cB c2|D2 d^c d2|e2 f2 a2|
g2 g2 (3gfe|f2 f2 fe|de dc A2|de dc A2|
D2 BAB2|D2 cBc2|D2 d^cd2|e2 f2 a2|
g2 g2 (3gfe|f2 f2 fe|de dc AF|1 G4 (3GFE:|2 G4 (3ABc||
|:d2 d2 d^c|d2 d2 d^c|de dc AF|G2 B2 d2|
g2 g2 gf|g2 g2 gf|ga gf dc|A2 B2 c2|
d2 d2 d^c|d2 d2 d^c|de dc AF|G2 B2 g2|
f2 f2 A2|f2 f2 fe|de dc AF|1 G4 (3ABc:|2 G4 (3GFE||

